X:1
T:Title
%%score { ( 1 3 ) | ( 2 4 ) }
L:1/8
M:6/8
K:Ab
V:1 treble nm="Grand Piano"
V:3 treble 
V:2 bass 
V:4 bass 
V:1
 z3 z2[Q:1/4=100] [CA] | [Ec]3 [Fd]2 [Ec] | [DB] [CA]2- [CA]2 [EA] | [FA]3 F2 A | E3- E2 c | %5
 e3 [Af]2 [Ae] | [Ae] [Ec]2- [Ec]2 [EA] | [=DA]3 [DG]2 [DA] | B3- B2 E | [Ec]3 [Fd]2 [Ec] | %10
 [DB] [CA]2- [CA]2 [EA] | [FA]3 F2 A | E3- E2 [CE] | [DF]3 [EG]2 [FA] | E A2- A2 A | c3 c2 B | %16
[M:5/8] [A,CA]-[A,CA]- [A,CA]3 |[M:1/8] E |[M:3/4] B6- | B4 z2 | A6 | [A,FA]3 [EG]2 [DF] | %22
 [CE]3 [CE]2 [CE] | [EA]3 [Ec]2 [Ec] | B6- | B4 z2 | [CA]6- | [CA]4 z2 | z2 z [DF]3- | [DF]6 | %30
 E3 A2 B | c3 c2 B | A3- [DA-]3 |[M:5/8] [CA]-[CA]- [CA]3 |] %34
V:2
 z3 z2 [A,,A,] | [A,,A,]3 [A,,A,]2 [A,,A,] | [E,G,] [F,A,]2- [F,A,]2 [C,A,] | %3
 [D,A,]3 [D,A,D]2 [F,A,D] | [A,C]3- [A,C]2 [A,E] | [A,CE]3 [D,D]2 [A,C] | %6
 [A,C] [A,,A,]2- [A,,A,]2 [C,A,] | [F,C]3 [B,,B,]2 [B,,A,] | [E,G,E]3- [E,G,E]2 [E,G,] | %9
 [A,,A,]3 [A,,A,]2 [A,,A,] | [E,G,] [F,A,]2- [F,A,]2 [C,A,] | [D,A,]3 [D,A,D]2 [F,A,D] | %12
 [A,C]3- [A,C]2 [A,,A,] | [D,A,]3 [D,A,]2 [D,A,] | [E,A,C] [E,A,C]2- [E,A,C]2 [F,A,C] | %15
 [E,A,E]3 [E,G,E]2 [E,G,D] |[M:5/8] A,,-A,,- A,,3 |[M:1/8] E, |[M:3/4] D6- | D4 z2 | [F,C]4 z2 | %21
 D,3 [D,A,]3 | [A,,A,]3 [A,,A,]2 [A,,A,] | [C,A,]3 [A,,A,]2 [A,,A,] | [E,G,]3 [B,,F,]3 | z2 z .E3 | %26
 A,,3 A,,2 A,, | A,,3 A,,2 C, | [D,A,]3 [D,A,]2 D, | D,3 D,2 [D,A,D] | [E,A,C]3 [F,A,C]2 [=E,A,D] | %31
 [E,A,E]3 [E,G,E]2 [E,G,D] | z2 z F,3 |[M:5/8] E,-E,- E,3 |] %34
V:3
 x6 | x6 | x6 | x6 | x6 | x6 | x6 | x6 | x6 | x6 | x6 | x6 | x6 | x6 | x6 | x6 |[M:5/8] x5 | %17
[M:1/8] x |[M:3/4] z2 z G,2 G, | G,3 c2 B | z2 z E3 | x6 | x6 | x6 | E3 =D3 | E3 c2 B | %26
 A,3 A,2 A, | A,3 [A,CA]2 [A,EG] | [FB]4 z A, | A,3 A,2 F | x6 | x6 | [A,C]4 z2 |[M:5/8] x5 |] %34
V:4
 x6 | x6 | x6 | x6 | x6 | x6 | x6 | x6 | x6 | x6 | x6 | x6 | x6 | x6 | x6 | x6 |[M:5/8] x5 | %17
[M:1/8] x |[M:3/4] [E,G,]3 E,2 E, | E,3 [=E,G,C]2 [E,G,D] | A,3- [C,A,]3 | x6 | x6 | x6 | x6 | %25
 [E,G,]3 [E,G,]2- [E,G,D] | x6 | x6 | x6 | x6 | x6 | x6 | A,,6- |[M:5/8] A,,-A,,- A,,3 |] %34

